src/images/icons/translate.svg

<?xml version="1.0" encoding="utf-8"?>
<!-- Generated by IcoMoon.io -->
<!DOCTYPE svg PUBLIC "-//W3C//DTD SVG 1.1//EN" "http://www.w3.org/Graphics/SVG/1.1/DTD/svg11.dtd">
<svg version="1.1" xmlns="http://www.w3.org/2000/svg" xmlns:xlink="http://www.w3.org/1999/xlink" width="24" height="24" viewBox="0 0 24 24">
<path fill="#444" d="M15.891 17.016h3.234l-1.641-4.359zM18.516 9.984l4.5 12h-2.016l-1.125-3h-4.734l-1.125 3h-2.016l4.5-12h2.016zM12.891 15.047l-0.797 2.063-3.094-3.094-5.016 4.969-1.406-1.406 5.109-5.016q-1.875-2.063-3-4.547h2.016q0.984 1.875 2.297 3.328 2.156-2.391 3.188-5.344h-11.203v-2.016h7.031v-1.969h1.969v1.969h7.031v2.016h-2.953q-1.219 3.75-3.703 6.516l-0.047 0.047z"></path>
</svg>

<svg xmlns="http://www.w3.org/2000/svg" width="24" height="24" viewBox="0 0 24 24">
    <path d="M15.885 17.024h3.23l-1.64-4.365zm2.621-7.043L23 22h-2.013l-1.124-3.005h-4.727L14.013 22H12l4.493-12.019h2.013zm-5.617 5.071l-.796 2.066-3.09-3.098-5.008 4.976-1.404-1.408 5.102-5.024Q5.82 10.498 4.697 8.01H6.71q.983 1.878 2.294 3.333 2.153-2.394 3.183-5.352H1V3.972h7.021V2h1.966v1.972h7.021v2.02H14.06q-1.218 3.755-3.698 6.525l-.047.047z" fill="#444"/>
</svg>
